packages/ffe-icons/icons/open/500/md/highlight_keyboard_focus.svg

<svg xmlns="http://www.w3.org/2000/svg" height="24" viewBox="0 -960 960 960" width="24"><path d="M480-271.869q19.152 0 32.326-13.174T525.5-317.37v-322.152q0-19.152-13.174-32.326T480-685.022q-19.152 0-32.326 13.174T434.5-639.522v322.152q0 19.153 13.174 32.327T480-271.869Zm0 200q-84.913 0-159.345-32.118t-129.491-87.177q-55.059-55.059-87.177-129.491Q71.869-395.087 71.869-480t32.118-159.345q32.118-74.432 87.177-129.491 55.059-55.059 129.491-87.177Q395.087-888.131 480-888.131t159.345 32.118q74.432 32.118 129.491 87.177 55.059 55.059 87.177 129.491Q888.131-564.913 888.131-480t-32.118 159.345q-32.118 74.432-87.177 129.491-55.059 55.059-129.491 87.177Q564.913-71.869 480-71.869Zm0-91.001q133.043 0 225.087-92.043Q797.13-346.957 797.13-480t-92.043-225.087Q613.043-797.13 480-797.13t-225.087 92.043Q162.87-613.043 162.87-480t92.043 225.087Q346.957-162.87 480-162.87ZM480-480Z"/></svg>

<svg xmlns="http://www.w3.org/2000/svg" height="24" viewBox="0 -960 960 960" width="24"><path d="M480-271.87q19.15 0 32.33-13.17 13.17-13.18 13.17-32.33v-322.15q0-19.15-13.17-32.33-13.18-13.17-32.33-13.17t-32.33 13.17q-13.17 13.18-13.17 32.33v322.15q0 19.15 13.17 32.33 13.18 13.17 32.33 13.17Zm0 200q-84.91 0-159.34-32.12-74.44-32.12-129.5-87.17-55.05-55.06-87.17-129.5Q71.87-395.09 71.87-480t32.12-159.34q32.12-74.44 87.17-129.5 55.06-55.05 129.5-87.17 74.43-32.12 159.34-32.12t159.34 32.12q74.44 32.12 129.5 87.17 55.05 55.06 87.17 129.5 32.12 74.43 32.12 159.34t-32.12 159.34q-32.12 74.44-87.17 129.5-55.06 55.05-129.5 87.17Q564.91-71.87 480-71.87Zm0-91q133.04 0 225.09-92.04 92.04-92.05 92.04-225.09 0-133.04-92.04-225.09-92.05-92.04-225.09-92.04-133.04 0-225.09 92.04-92.04 92.05-92.04 225.09 0 133.04 92.04 225.09 92.05 92.04 225.09 92.04ZM480-480Z"/></svg>
